X:5461
T:Red Jacket, The
O:england
C:Rick Gagne, 1986
D:Dun Creagan, The 80s Live
N:IrTrad, 6/99, Rick Gagne and Elise Morse-Gagne N:<Morse.Gagne@CONNRIVER.NET>
M:6/8
L:1/8
R:Jig
K:Ddor
DE |: FDD A2A | c2 c BAG | ADD DEF | GEE CEE |
FDD A2A | c2 c BAG | A2D DEF |1 GEC D2E :|2 GEC DFA ||
d2d ded | cAA ABc | d2d de^f | g^fg a2g |
^fed de^f | e^cA AGF | GAB BAG |1 AFD DFA :|2 AFD D3 ||


